site/static/docs/4.3/assets/img/favicons/safari-pinned-tab.svg

<svg width="192" height="192" viewBox="0 0 192 192" fill="none" xmlns="http://www.w3.org/2000/svg">
<g style="mix-blend-mode:multiply">
<rect width="192" height="192" fill="black"/>
</g>
<path fill-rule="evenodd" clip-rule="evenodd" d="M136 20H56C36.1178 20 20 36.1178 20 56V136C20 155.882 36.1178 172 56 172H136C155.882 172 172 155.882 172 136V56C172 36.1178 155.882 20 136 20ZM56 16C33.9086 16 16 33.9086 16 56V136C16 158.091 33.9086 176 56 176H136C158.091 176 176 158.091 176 136V56C176 33.9086 158.091 16 136 16H56Z" fill="white"/>
<path fill-rule="evenodd" clip-rule="evenodd" d="M101.367 136H66.6207V51.4492H100.605C116.484 51.4492 126.035 59.5352 126.035 72.543C126.035 81.3906 119.531 89.3008 111.211 90.707V91.7031C122.636 92.875 130.254 101.02 130.254 112.035C130.254 126.918 119.414 136 101.367 136ZM79.7457 62.582V87.25H95.3317C106.933 87.25 112.968 82.9727 112.968 74.9453C112.968 67.1523 107.285 62.582 97.5582 62.582H79.7457ZM98.7301 124.867H79.7457V97.6211H97.9684C110.332 97.6211 116.836 102.25 116.836 111.098C116.836 120.062 110.566 124.867 98.7301 124.867Z" fill="white"/>
</svg>

<svg xmlns="http://www.w3.org/2000/svg" width="192" height="192" fill="none" viewBox="0 0 192 192">
  <path fill="#000" d="M0 0h192v192H0z"/>
  <path fill="#fff" fill-rule="evenodd" d="M136 20H56c-19.882 0-36 16.118-36 36v80c0 19.882 16.118 36 36 36h80c19.882 0 36-16.118 36-36V56c0-19.882-16.118-36-36-36zm-80-4c-22.091 0-40 17.909-40 40v80c0 22.091 17.909 40 40 40h80c22.091 0 40-17.909 40-40V56c0-22.091-17.909-40-40-40H56z" clip-rule="evenodd"/>
  <path fill="#fff" fill-rule="evenodd" d="M101.367 136H66.621V51.45h33.984c15.879 0 25.43 8.085 25.43 21.093 0 8.848-6.504 16.758-14.824 18.164v.996c11.425 1.172 19.043 9.317 19.043 20.332 0 14.883-10.84 23.965-28.887 23.965zM79.746 62.582V87.25h15.586c11.601 0 17.636-4.277 17.636-12.305 0-7.793-5.683-12.363-15.41-12.363H79.746zm18.984 62.285H79.746V97.621h18.222c12.364 0 18.868 4.629 18.868 13.477 0 8.964-6.27 13.769-18.106 13.769z" clip-rule="evenodd"/>
</svg>
